X:105
T:Tea for Two. JJo8.105
%%VWML:JohnsonVol8-2184-p53-0
F:http://www.vwml.org/record/JohnsonVol8/2184/p53
Z:Transcribed by Simon Furey and Lewis Jones
Z:vmp.Simon Wilson 2013 www.village-music-project.org.uk
Z:Dance added by John Chambers 2017
M:2/4
L:1/8
%Q:1/4=100
K:G
|:\
g2 (b/a/g/f/) | gdBG | ce- ed/c/ | BGFD |\
GB- BA/G/ | (c/d/e/f/)g2 | fdA^c | d2 D2 :|
|:\
de=f2 | ecBc | e^fg2 | fd^cd |\
abc'2 | bfge | dBcA | G2 G2 :|
W: First Man foot it to the 2d Wo. the
W:Man cast down the Wo. up .| foot it
W:again the Wo. cast down and the Man
W:up :| Cross over and turn :||. the 2d
W:Cu. the same :||: 1st and 2d Men foot
W:it to their Partners and turn .| foot it
W:Sides and turn :| Lead down the Middle
W:one Cu. up again and cast off :||. Right
W:hands and Left :||:
W:
T:Enfield Wash. JJo8.106
B:J.Johnson Choice Collection Vol 8 1758
Z:vmp.Simon Wilson 2013 www.village-music-project.org.uk
Z:Dance added by John Chambers 2017
M:6/8
L:1/8
%Q:3/8=100
K:G
|:\
GAB c2A | B2G AFD | GAB c2e | dcB A3 |\
GAB c2A | B2G AFD | E3  GAB | cAF G3 :|
|:\
GAB c2A | def g3  | def gag | fdB c2e |\
def gag | fdB cAF | E3  GAB | cAF G3 :|
W: First Cu. cross over one Cu.
W:and turn .| the 2d Cu. the same :|
W:Lead down the Middle, up again
W:and cast off :||. Right hand
W:and Left at top :||:
W:
